X:244
T:Pollonesse ur Matthias Silvius Svenonis notbok
T:(SmM I:244)
R:Polska
B:Småländsk Musiktradition
S:Matthias Silvius Svenonis
O:Kalmar, Småland
N:1721
M:3/4
L:1/8
K:C
c2 cB cd|e2 fe dc|d2 G4|c2 cB cd|e2 fe dc|BG c4:||:ec fd ec|
ec fd ec|d2 G4|ec fd ec|Bc df ed|c>d c4:|

